X:1
T:4.
T:Op. 121, N° 4.
T:4.
T:(S. Pauli an die Corinther I., Kap. 13.)
T:Copyright © 2009 by the Choral Public Domain Library (http://www.cpdl.org) Edition may be freely distributed, duplicated, performed, or recorded.
T:Copyright © 2009 by the Choral Public Domain Library (http://www.cpdl.org) Edition may be freely distributed, duplicated, performed, or recorded.
T:Copyright © 2009 by the Choral Public Domain Library (http://www.cpdl.org) Edition may be freely distributed, duplicated, performed, or recorded.
T:Copyright © 2009 by the Choral Public Domain Library (http://www.cpdl.org) Edition may be freely distributed, duplicated, performed, or recorded.
T:Copyright © 2009 by the Choral Public Domain Library (http://www.cpdl.org) Edition may be freely distributed, duplicated, performed, or recorded.
T:Copyright © 2009 by the Choral Public Domain Library (http://www.cpdl.org) Edition may be freely distributed, duplicated, performed, or recorded.
T:Copyright © 2009 by the Choral Public Domain Library (http://www.cpdl.org) Edition may be freely distributed, duplicated, performed, or recorded.
T:Copyright © 2009 by the Choral Public Domain Library (http://www.cpdl.org) Edition may be freely distributed, duplicated, performed, or recorded.
T:Copyright © 2009 by the Choral Public Domain Library (http://www.cpdl.org) Edition may be freely distributed, duplicated, performed, or recorded.
T:Copyright © 2009 by the Choral Public Domain Library (http://www.cpdl.org) Edition may be freely distributed, duplicated, performed, or recorded.
C:Op. 121, N° 4.
Z:Copyright © 2009 by the Choral Public Domain Library (http://www.cpdl.org)
Z:Edition may be freely distributed, duplicated, performed, or recorded.
%%score ( 1 2 ) { ( 3 5 7 ) | ( 4 6 ) }
L:1/8
Q:1/4=80
M:4/4
K:Eb
V:1 bass nm="Baritone"
V:2 bass 
V:3 treble nm="Piano"
V:5 treble 
V:7 treble 
V:4 bass 
V:6 bass 
V:1
"^Andante con moto ed anima." z8 | z8 | B,4- B,B,,C,D, | E,3 F, G,2 B,2 | E3 D (CB,) (A,F,) | %5
w: ||Wenn _ _ ich mit|Men- schen und mit|En- gels- zung- * en _|
 D3 C B,2 z B,, | (D,F,)E,D, B,4- | B,2 G,2 E,2 z C | =D,2 D,E, (F,G,) (A,=A,) | %9
w: re- det- e, und|hät- * te der Lie-|* be nicht, so|wär ich ein tö- * nend *|
 B,2 _C_A, (F,D,) (E,F,) | (_G,E,)_C,=A,, B,,2 B,,2 | z8 | z4 z2 B,2 | (E3 E,) G,2 =A,2 | %14
w: Erz, o- der ei- * ne _|klin- * gen- de Schel- le.||Und|wenn _ ich weis-|
 B,3 B,, B,,2 C,D, | E,3 E, (E,F,)G,B, | E3 E, (E,F,) (G,A,) | D2 CD CB, z F, | %18
w: sa- gen könn- te und|wüß- te al- * le Ge-|heim- nis- se _ und _|al- le Er- kennt- nis, und|
 (B,_D) (CB,) (CA,)(B,C) | (B,_G,) (A,B,) _D2 C2 | z2 CC (F_D)B,F, | F,4 B,,2 z2 | z4 z2 z B,, | %23
w: hät- * te _ al- * len _|Glau- * ben, _ al- so,|daß ich Ber- * ge ver-|setz- te,|und|
 (_D,F,)E,D, B,4- | B,2 G,2 E,2 z C | (=D,3 E,) (F,G,) A,=A, | B,2 (_CA,) (F,D,) (E,F,) | %27
w: hät- * te der Lie-|* be nicht, so|wä- * re _ ich _|nichts, so _ wä- * re, _|
 (_G,E,)_C,=A,, B,,2 z2 | z4 z2 B,2 | _C3 B,, E,2 F,2 | _G,3 __B, A,2 _D,D, | A,3 _C B,2 E,B, | %32
w: wä- * re ich nichts.|Und|wenn ich al- le|mei- ne Ha- be den|Ar- men gä- be, und|
 (_DB,) (A,=G,) (=CA,) (G,F,) | (A,3 F,) A,2 G,2 | z2 CC (FCA,F,) | C4 F,2 z2 | z4 z2 z C, | %37
w: lie- * ße _ mei- * nen _|Leib _ bren- nen|mei- nen Leib _ _ _|bren- nen;|und|
 (F,A,)G,F, (C4- | C3 B,) (B,3 G,) | E,4 z2 C2 | =D,3 E, (F,G,) (A,=A,) | B,2 D,2 z4 | %42
w: hät- * te der Lie-|* * be _|nicht, so|wä- re mir's _ nichts _|nüt- ze,|
 z4 z2 (CB,) | B,3 E D3 C | A,6 D,2 | E,4 z4 | z4 z4 || %47
w: so _|wä- re mir's nichts|nüt- *|ze.||
[K:B][M:3/4]"^Adagio."[Q:1/4=60] B,2 A,2 C2 | E3 D A,B, | D3 C B,G, | G,3 F, CD | C4 B,2 | z6 | %53
w: Wir se- hen|jetzt durch ei- nen|Spie- * gel in|ei- nem dunk- eln|Wor- te,||
 B,4 C,2- | C,2 C,2 C,2 | (D,2 F,2) B,2 | (=A,2 G,2) C2 | B,4 G,2 | (G,4 F,2) | B,,4 z2 | z6 | %61
w: dann a-|* ber von|An- * ge-|sicht _ zu|An- ge-|sich- *|te.||
 (F,2 ^E,2) G,2 | B,2 A,2 F,2 | =D2 C2 F,2 | z2 z2 B,2 | B,4 C,2 | C,2 C,2 ^^C,2 | (D,2 F,2) B,2 | %68
w: Jetzt _ er-|ken- ne ich's|stück- wei- se,|dann|a- ber|werd ich's er-|ken- * nen,|
 (D2 C2) E2 | (B,4 =D)B, | B,4 A,2 | B,4 z2 | z6 |"^poco" z6 |"^a""^poco" z6 || %75
w: gleich _ wie|ich _ er-|ken- net|bin.||||
[K:Eb][M:4/4]"^più   moto" (B,4- B,B,,)C,D, | (E,4- E,F,) (G,B,) | C4 F,4 | D4 G,4 | (E6 G2 | %80
w: Nun _ _ a- ber|blei- * * ben _|Glau- be,|Hoff- nung,|Lie- *|
 F2) D2 C2 =A,2 | F,4- ^F,2 z2 |[M:3/4]"^Sostenuto un poco." G,2 =F,2 A,2 | C3 B, ^F,G, | %84
w: * be, die- se|drei, _|a- ber die|Lie- be ist die|
 (B,3 A,) C,F, | (G,3 F,) (F,G,) | F,2 E,2 z2 | z2 z2 G,2 | C4 F,2- | F,2 F,2 ^F,2 | (G,2 B,2 E2 | %91
w: grö- * ße- ste|un- * ter _|ihn- en,|die|Lie- be|_ ist die|grö- * *|
 _D2) C2 F2 | E4 G,2 | (C4 D,2) | E,4 z2 | z6 | z6 | z6 | z6 |] %99
w: * ße- ste|un- ter|ihn- *|nen.|||||
V:2
 x8 | x8 | x8 | x8 | x8 | x8 | x8 | x8 | x8 | x8 | x8 | x8 | x8 | x8 | x8 | x8 | x8 | x8 | x8 | %19
 x8 | x8 | x8 | x8 | x8 | x8 | x8 | x8 | x8 | x8 | x8 | x8 | x8 | x8 | x8 | x8 | x8 | x8 | x8 | %38
 x8 | x8 | x8 | x8 | x8 | x8 | x8 | x8 | x8 ||[K:B][M:3/4] x6 | x6 | x6 | x6 | x6 | x6 | x6 | x6 | %55
 x6 | x6 | x6 | x6 | x6 | x6 | x6 | x6 | x6 | x6 | x6 | x6 | x6 | x6 | x6 | x6 | x6 | x6 | x6 | %74
 x6 ||[K:Eb][M:4/4] x8 | x8 | C4 A,,4 | D4 B,,4 | E6 =E2 | F2 x6 | x8 |[M:3/4] x6 | x6 | x6 | x6 | %86
 x6 | x6 | x6 | x6 | x6 | x6 | x6 | x6 | x6 | x6 | x6 | x6 | x6 |] %99
V:3
!f! [EAce]4 [FAdf]4 | ([GBeg]3 [Ee]) ([B,GB]2!mf! [G,EG]2) | ([F,DF]2 [G,EG]2 [A,FA]4) | %3
 ([G,EG]2 [A,FA]2 [B,GB]4) |!<(! ([CAc]2 [DBd]2!<)! [Ece]4) |!>(! ([A,FA]2 [=A,E=A]2!>)! [B,DB]4) | %6
 z4!p! ([G,G]4- | [G,G]4 A4 | z [A,FA] z [G,EG] z [F,=DF] z [E,CE] | %9
!<(! z[I:staff +1] [D,B,D][I:staff -1] z [_CA_c] z [B,_GB] z [A,FA] | %10
 z!<)! [_G,E_G] z [E,_CE][K:bass] z!>(! [D,B,D] z2 | z [E,_G,=A,] z2 z [D,F,B,]!>)! z2 | %12
!f! [B,E=GB]2 [CE=Ac]2 [DFd]4) | .[EGe]2 [CE]6 |!mp! ([F,DF]2 [G,EG]2 [A,FA]4) | %15
 ([G,EG]2 [A,FA]2 [B,GB]4) | ([CEc]2 [B,DB]2 [A,CA]4) | ([A,FA]2 [_G,E_G]2 [F,DF]4) | %18
!p! ([B,B][_D_d][Cc][B,B]!<(![Cc][A,A][B,B][Cc]) | %19
 ([B,B][_G,_G][A,A][B,B])!<)!!f! ([FB_d]_D) ([F=A]C) | %20
 ([=A_d_g]!>(!_G) ([=A,CG]_G,)!>)! ([B,F]F,) z2 | [CF]4!f! ([FBf]_d)!>(! ([B,_DB]F) | %22
 [F,CF]4!>)!!p! [B,F]2 z2 | z4"^dolce" [G,G]4- | [G,G]4 A4 | %25
!<(! z [A,FA] z [G,EG] z [F,=DF] z[I:staff +1] [E,CE]!<)! | %26
[I:staff -1] z[I:staff +1] [D,B,D][I:staff -1] z [_CA_c] z [B,_GB] z [A,FA] | %27
[K:bass] z!>(! [_G,E_G] z [E,_CE] z [D,B,D] z2 | z [E,_G,=A,] z2 z [D,F,B,]!>)! z2[K:treble] | %29
!f!!>(! .[_CE_c]2[I:staff +1] [_C,A,C]6!>)! |[I:staff -1] z8 | %31
!<(! ([E,CE]2 [=F,=D=F]2!<)! [_G,E_G]4) | .[_D=GB_d] [B,D]3 .[C=EGc] [A,CF]3 | %33
 [=DFA=d] (=B,CD) ([CFA]A,) ([C=EG]G,) | ([_d=ea]!>(!A) ([C=EG]!>)!G,) ([Fc]C) z2 | %35
 G4!f! ([cfc']a) ([FAf]c) |[K:bass]!>(! [G,C]4!>)! [A,C]2 z2 | z4!p!!<(! [A,A]4 | %38
 [A,A]4!<)!!>(! [G,G]4 | A6!>)! z2 | z [A,FA] z [G,EG] z [F,=DF] z[I:staff +1] [E,CE] | %41
[I:staff -1] z[I:staff +1] [D,B,D][I:staff -1] (_cA) (FD) (_GE) | %42
 (=C=A,) z2[K:bass]!p! (B,_A,) (F,D,) | z2 ([B,E]E,) z2 ([CE]F,) | (F,3 C)"^dim." (B,3 A,) | %45
"^rit." (G,3 B,)!>(! (B,3 E) | (E3 _G)!>)! !fermata![_DG]4 || %47
[K:B][M:3/4]!p!"^dolce" (3(D,F,B, (3C,F,A, (3E,A,C | (3G,B,E (3F,B,D (3D,F,B,) | %49
 (3(F,B,D (3E,G,C (3E,G,B, | (3=D,G,B, (3C,F,A, (3=E,F,A,) | %51
 (3(E,A,C (3^D,^^F,A,)!>(! (.[G,B,E].[^F,A,D])!>)! | (3(E,CA, (3D,A,^^F, (3D,B,G,) | %53
 (3(C,G,B,[K:treble] (3CGB-) B2 |[I:staff +1] (3C,G,B,[I:staff -1][K:treble] (3CGB- B2 | %55
[I:staff +1] (3(D,F,B,[I:staff -1] (3DFB-) B2 |[I:staff +1] (3(D,=A,^B,[I:staff -1] (3EGc-) c2 | %57
[I:staff +1] (3(=D,^E,G,[I:staff -1] (3=D^EG-) G2 | %58
[I:staff +1] (3(C,=E,B,[I:staff -1] (3=EAc-) c2 | ([^DFB]2!<(! [CFA]2!<)! [EAc]2 | %60
!>(! [EGBe]2!>)! [DFBd]2 [DFB]2) | (3(A,CF (3G,B,^E (3B,EG | (3=DGB (3CFA (3A,CF) | %63
 (3(^EG=d (3FAc (3A,CF) |!>(! ([=EAc=e]2 [^DB^d]2!>)! [DG]2) | %65
[I:staff +1] (3(C,G,B,[I:staff -1] (3CGB-) B2 |[I:staff +1] (3(C,G,B,[I:staff -1] (3CGB-) [GB]2 | %67
[I:staff +1] (3(D,F,B,[I:staff -1] (3DFB)[I:staff +1] (3(F,=A,^D | %68
[I:staff -1] (3F=Ad)[I:staff +1] (3(E,G,C[I:staff -1] (3=Gce) | (3z (=D,^E, [E,G,]4) | %70
 (3z (C,=E, [E,C]4) | ([^D,=B,]2!<(! [C,A,]2 [E,C]2 | [G,E]2 [F,D]2!<)! [=A,F]2) | %73
"^poco""^cresc." ([B,=A]4 ^F2) |"^a" [=A,=A]4"^poco" (_G_E) || %75
[K:Eb][M:4/4]!mp!"^più   moto"[I:staff +1] ([D,B,D]2[I:staff -1] [F,DF]2 [A,FA]4) | %76
 ([G,EG]2 [B,GB]2 [_DG_d]4) | [Cc]6 [^C^c]2 | [Dd]6 [=F=f]2 | [Ee]4 [Ee]4 | [D_ABd]4 [FAf]4 | %81
 [A,DA]8 |[M:3/4] (e2 d2 f2) | (a3 g de) | (g3 f ec) | (e3 d AB) | (A2 G2) (.[EAc].[DGB]) | %87
 (A4 G2) | (3(F,CE (3Fce-) e2 | (3(F,CE (3Fce-) e2 | (3(G,B,E (3GBe)[I:staff +1] (3(E,B,_D | %91
[I:staff -1] (3GB_d)[I:staff +1] (3(F,A,C[I:staff -1] (3FAc) | (3(E,CE-) [E,CE]4 | %93
 (3(_A,D_A-) [A,DA]4 | (3G,EG- [G,EG]2 (3B,GB- | [B,GB]2 (3EGe- [EGe]2 | [GBeg]6 | [G,B,E]6 | %98
 !fermata![E,G,B,E]6 |] %99
V:4
 .[A,C] A,,3 .[F,A,D] F,,3 | .[E,B,E] [E,,E,]3- [E,,E,][E,,,E,,][G,,,G,,][=A,,,=A,,] | %2
 .[B,,D,].B,,, .[B,,E,].B,,, [B,,F,] B,,,3 | [E,,E,]E,,, [E,F,]E,, [E,G,] E,,3 | %4
 [A,,A,]A,,, [E,B,]A,, [A,C] A,,3 | [B,,F,]B,,, [B,,E,]B,,, [B,,D,] B,,,3 | z4 _D,4- | %7
 D,2 E,2- E,2 z2 | B,,, z B,, z B,,, z B,, z | B,,, z B,, z B,,, z B,, z | %10
 E,,, z E,, z B,,, z B,, z | E,,, z E,, z B,,, z B,, z | %12
 .[E,=G,].E,, .[C,E,=A,].C,, .[B,,F,B,] B,,,3 | .[E,,,E,,]2 E,6 | %14
 .[B,,D,].B,,, .[B,,E,].B,,, [B,,F,] B,,,3 | [E,,E,]E,,, [E,F,]E,, [E,G,] E,,3 | %16
 [A,,E,]A,,, [A,,D,]A,,, [A,,C,] A,,,3 | [B,,F,]B,,, [B,,E,]B,,, [B,,D,] B,,,3 | %18
 B,,_D,C,B,, C,A,,B,,C, | B,,_G,,A,,B,, F,,,F,, F,,F, | E,,,E,, E,,E, _D,,_D, z2 | %21
 F,,,F,, z2 [_D,,,_D,,][F,,,F,,] [B,,,B,,][D,,_D,] | [F,,C,]4 [B,,,B,,]2 z2 | z4 _D,4- | %24
 D,2 E,2- E,4 | B,,, z B,, z B,,, z B,, z | B,,, z B,, z B,,, z B,, z | E,,, z E,, z B,,, z B,, z | %28
 E,,, z E,, z B,,, z B,, z | [_C,,,_C,,]2 [A,,,A,,]6 |!p! [_D,B,_D]2 [E,=CE]2 [_F,D_F]4 | %31
 [_G,,C,]_G,,, [G,,=D,]G,,, [G,,E,] G,,,3 | [=E,,,=E,,] [=E,=G,]3 [A,,,A,,] [A,,C,F,]3 | %33
 =B,,, F,3 C,,,C,, C,,C, | _B,,,B,, B,,B, A,,,A,, z2 | C,,C, z2 [A,,,A,,][C,,C,] [F,,F,][A,,A,] | %36
 [C,,C,]4 [F,,,F,,]2 z2 | z4 F,D,E,F, | _D,F,E,D, E,4 | E,6 z2 | B,,, z B,, z B,,, z B,, z | %41
 B,,, z _CA, F,D, _G,E, | =C,=A,, z2 B,,,B,, _A,,,_A,, | =G,,,=G,, z2 A,,,A,, z2 | %44
 z2 B,,,2 z2 B,,2 | z2 E,,2 z2 B,,,2 | z2 _G,,,2 !fermata![_G,,_D,_F,]4 || %47
[K:B][M:3/4] [B,,,,B,,,]2 [F,,,F,,]4 | [E,,,E,,]2 [B,,,B,,]4 | [G,,,G,,]2 [C,,C,]4 | %50
 [^E,,,^E,,]2 [F,,,F,,]4 | [^^F,,,^^F,,]2 [G,,,G,,]2 (3z .[E,,,E,,].[^F,,,^F,,] | %52
 [^^F,,,^^F,,]2 G,,4 | [E,,,E,,]2 [E,G,B,]4 | [^E,,,^E,,]2 [^E,G,B,]4 | [F,,,F,,]2 [F,B,]4 | %56
 [F,,,F,,]2 [E,G,C]4 | [F,,,F,,]2 [^E,G,B,]4 | [F,,,F,,]2 [F,A,]4 | (3B,,,D,F, (3E,F,A, (3F,A,C | %60
 (3B,,,E,G, (3F,B,F, (3D,F,D, | C,2 =D,4 | ^E,2 F,4 | B,,2 A,,4 | %64
 (3^^F,,,^^F,,A,, (3G,,,G,,B,, (3D,G,B, | [E,,,E,,]2 [E,G,B,]4 | [^E,,,^E,,]2 [^E,G,B,]4 | %67
 [F,,,F,,]2 [F,B,]2 [F,,,F,,]2 | [F,=A,^B,]2 [F,,,F,,]2 [E,=G,C]2 | F,,,2 F,,4 | F,,,2 F,,4 | %71
 B,,,F,,- F,,4 | B,,,B,,- B,,4 | B,,,[B,,F,]- F,2 D,2 | _C,,[_C,=F,]- F,2 _E,_G, || %75
[K:Eb][M:4/4] [D,B,]2 D, x [B,,F,] B,,,3 | [E,,E,]E,,, [E,G,]E,, [E,B,] E,,3 | %77
 [A,,E,]A,,, [A,,=E,]A,,, [A,,F,] A,,,3 | [B,,F,]B,,, [B,,^F,]B,,, [B,,G,] B,,,3 | %79
 [C,G,]C,, [C,^G,]C,, [C,E,=A,] [F,,,F,,]3 | [B,,F,_A,B,] B,,,3 [B,,D,] B,,,3 | %81
 [B,,F,] B,,,3 [B,,^F,] B,,,3 |[M:3/4] (3E,,G,B,, (3E,,F,B,, (3E,,A,D, | %83
 (3E,,F,D, (3E,,G,E, (3E,,E,B,, | (3C,,E,C, (3F,,A,F, (3A,,CA, | (3=A,,CE, (3B,,B,_A, (3B,,F,D, | %86
 (3=B,,,D,=B,, (3C,,E,C, [A,,,A,,][_B,,,_B,,] | [=B,,,=B,,]2 [C,,C,]4 | [A,,,A,,]2 [A,CE]4 | %89
 [=A,,,=A,,]2 [=A,CE]4 | [B,,,B,,]2 [E,B,]2 [G,,,G,,]2 | [=E,B,]2 [A,,,A,,]2 [F,A,]2 | %92
 =A,,,2 [=A,,G,]4 | B,,,2 [B,,F,]4 | [E,,,E,,]2 [B,,B,]2 [G,,G,]2 | %95
 [E,,E,]2 [B,,,B,,]2 [G,,,G,,]2 | [E,,,E,,]6 | [E,,B,,E,]6 | !fermata!E,,6 |] %99
V:5
 x8 | x8 | x8 | x8 | x8 | x8 | x4 _DFED | FE_DE DCB,A, | x8 | x8 | x4[K:bass] x4 | x8 | %12
 x4 (B2 _A2) | x8 | x8 | x8 | x8 | x8 | x8 | x8 | x8 | (B,2 =A,2) x4 | (B,2 =A,2) F,2 x2 | %23
 x4 _DFED | FE_DE DCB,A, | x8 | x8 |[K:bass] x8 | x7[K:treble] x | x8 | x8 | x8 | x8 | x A,3 z4 | %34
 x8 | (F2 =E2) x4 |[K:bass] (F,2 =E,2) F,2 x2 | x4 =DFED | F_DEF DFED | _DCB,C B,A, x2 | x8 | x8 | %42
 x4[K:bass] x4 | x8 | E,4 D,4 | E,4 [E,_G,]4 | [_G,B,]4 [G,B,]4 ||[K:B][M:3/4] x6 | x6 | x6 | x6 | %51
 x6 | x6 | x2[K:treble] C2- C2 | x2[K:treble] C2 ^^C2 | x6 | x6 | x6 | x6 | x6 | x6 | x6 | x6 | %63
 x6 | x6 | x6 | x2 C2 ^^C2 | x6 | x6 | x21/32 (3:2:1=D,2- D,4 | x21/32 (3:2:1C,2- C,4 | x6 | x6 | %73
 (E2 D2) =A,2 | =F2 _E2 =A,2 ||[K:Eb][M:4/4] x8 | x8 | E2 =E2 F4 | F2 ^F2 G4 | G2 ^G2 =A4 | x8 | %81
 x8 |[M:3/4] (3eEG (3dDA (3fFc | (3aAc- (3cgB (3d^FG | (3gGB- (3BfA (3eFc | (3eGc- (3cdF (3FDG | %86
 (3FA,D (3EG,C x2 | (3FA,D (3F=B,D (3EG,C | x2 F2- F2 | x2 F2- ^F2 | x6 | x6 | E,2- x4 | A,2- x4 | %94
 G,2- x2 B,2- | x2 E2- x2 | x6 | x6 | x6 |] %99
V:6
 x8 | x8 | x8 | x8 | x8 | x8 | x4 E,,4- | E,,4 A,,2 x2 | x8 | x8 | x8 | x8 | x8 | x2 [C,,C,]6 | %14
 x8 | x8 | x8 | x8 | x8 | x8 | x8 | x8 | x8 | x4 E,,4- | E,,4 A,,4 | x8 | x8 | x8 | x8 | x2 x6 | %30
 [_G,,B,,]_G,,, [G,,=C,]G,,, [G,,_D,] G,,,3 | x8 | x8 | x =D,C,=B,, x4 | x8 | x8 | x8 | x4 B,,4 | %38
 B,,4 E,,4 | A,,6 x2 | x8 | x8 | x8 | x8 | x8 | x8 | x8 ||[K:B][M:3/4] x6 | x6 | x6 | x6 | x6 | %52
 x6 | x6 | x6 | x6 | x6 | x6 | x6 | B,,,2 B,,2 B,,2 | B,,,2 B,,2 B,,2 | F,,6 | F,,6 | F,,2 x4 | %64
 x6 | x6 | x6 | x6 | x6 | F,,,6 | F,,,6 | B,,,6 | B,,,6 | x2 B,,4 | x2 C,2 _C,2 || %75
[K:Eb][M:4/4] B,,B,,, B,,B,,, x4 | x8 | x8 | x8 | x8 | x8 | x8 |[M:3/4] x6 | x6 | x6 | x6 | x6 | %87
 x6 | x6 | x6 | x4 x2 | x6 | x6 | x6 | x6 | x6 | x6 | x6 | x6 |] %99
V:7
 x8 | x8 | x8 | x8 | x8 | x8 | x8 | x8 | x8 | x8 | x4[K:bass] x4 | x8 | x8 | x8 | x8 | x8 | x8 | %17
 x8 | x8 | x8 | x8 | x8 | x8 | x8 | x8 | x8 | x8 |[K:bass] x8 | x7[K:treble] x | x8 | x8 | x8 | %32
 x8 | x8 | x8 | x8 |[K:bass] x8 | x8 | x8 | x8 | x8 | x8 | x4[K:bass] x4 | x8 | x8 | x8 | x8 || %47
[K:B][M:3/4] x6 | x6 | x6 | x6 | x6 | x6 | x2[K:treble] x21/32 (3:2:1G2- G2 | %54
 x2[K:treble] x21/32 (3:2:1G2- G2 | x6 | x6 | x6 | x6 | x6 | x6 | x6 | x6 | x6 | x6 | x6 | x6 | %67
 x6 | x6 | x6 | x6 | x6 | x6 | x6 | x6 ||[K:Eb][M:4/4] x8 | x8 | x8 | x8 | x8 | x8 | x8 | %82
[M:3/4] x6 | x6 | x6 | x6 | x6 | x6 | x2 (3:2:2x c2- c2 | x2 (3:2:2x c2- c2 | x6 | x6 | %92
 (3:2:2E, C2- x4 | (3:2:2A, D2- x4 | (3:2:2G, E2- x2 (3:2:2B, G2- | x2 (3:2:2E G2- x2 | x6 | x6 | %98
 x6 |] %99

